html/img/logo.svg

<?xml version="1.0" encoding="utf-8"?>
<!-- Generator: Adobe Illustrator 15.0.0, SVG Export Plug-In . SVG Version: 6.00 Build 0)  -->
<!DOCTYPE svg PUBLIC "-//W3C//DTD SVG 1.1//EN" "http://www.w3.org/Graphics/SVG/1.1/DTD/svg11.dtd">
<svg version="1.1" id="Layer_2" xmlns="http://www.w3.org/2000/svg" xmlns:xlink="http://www.w3.org/1999/xlink" x="0px" y="0px"
	 width="154px" height="64px" viewBox="0 0 154 64" enable-background="new 0 0 154 64" xml:space="preserve">
<g>
	<path fill="#FFFFFF" d="M59.292,42.755c-0.833-0.25-2.153,0.373-2.153,0.373s-3.027,2.513-17.84-0.378
		c-10.908-2.129-16.583-1.917-16.583-1.917s1.833-12.5,1.333-16c0,0,0-0.917-1.083-0.917s-1.75,0.417-1.75,1s0.167,4.417-0.25,7.083
		c0,0-1.417,4.251-6.167,3.917s-5.75-3.75-6.167-6.083S7.966,21,9.216,18.333c0,0,7.167,0.25,11.667-3.583s4.25-7.167,2.083-8.583
		S15.883,5,12.049,8.5s-5.083,7-5.083,7s-5.625-1.208-4.333-7.083C3.982,2.277,12.393,3,12.393,3c1.75,0.333,1.823,0.5,2.406-0.083
		s1-2.083-1.75-2.167s-11,1.271-12.583,6.75c-1.685,5.828,1.435,9.997,5.622,10.643c0,0-2.288,10.107,0.545,15.107
		s6.94,4.917,8.595,4.917s4.572-0.916,5.405-2.25c0,0-0.393,3.581-0.724,4.88c0,0-6.935-0.095-9.109,1.036
		c-3.688,1.917-2.917,6.48-1.5,8.104c1.204,1.38,4.812,2.125,7.417,0.896c2.705-1.277,4.865-3.739,5.549-7.697
		c0,0,6.368-0.469,12.534,1.364s14.756,3.556,17.34,3.556s8.046-0.738,8.327-2.889C60.653,43.729,60.125,43.005,59.292,42.755z
		 M15.862,9.328c0,0,3.281-2.5,4.844-0.938c0,0,1.25,1.281,0.094,2.812c-0.656,0.869-2.396,3.589-10.656,4.938
		C10.143,16.141,12.737,11.578,15.862,9.328z M16.127,48.234c0,0-4.531,2.469-5.047-0.875c-0.333-2.158,0.89-3.18,1.687-3.57
		s1.875-0.879,6.579-0.711C19.346,43.078,19.346,46.406,16.127,48.234z"/>
	<path fill="#FFFFFF" d="M73.576,24.477c0,2.256-0.001,4.513-0.002,6.77c-0.007,0.038-0.019,0.075-0.021,0.115
		c-0.035,0.931-0.418,1.734-0.861,2.537c-0.298,0.541-0.716,1.056-1.18,1.463c-0.533,0.469-0.877-0.564-1.078-0.985
		c-1.391-2.915-0.726-6.812-0.187-9.862c0.257-1.454-2.706-1.077-2.936,0.222c-0.334,1.888-0.869,5.118-0.547,7.906
		c-0.587,0.101-1.167,0.366-1.341,0.737c-0.511,1.088-2.009,4.704-3.833,3.258c-1.319-1.046-1.461-3.743-1.6-5.268
		c-0.191-2.111,0.154-4.267,0.816-6.266c-0.058,0.173,1.14-2.823,1.67-1.703c0.326,0.69,0.032,2.641-0.608,3.122
		c-1.571,1.182,0.875,1.67,1.824,0.956c1.802-1.356,3.05-5.708-0.074-6.232c-3.464-0.581-5.438,2.923-6.163,5.697
		c-0.335,1.279-0.563,3.074-0.504,4.886c-0.481,0.832-2.097,3.533-3.047,4.026c-1.125,0.584-1.104-0.229-1.062-0.75
		s0.542-5.146,0.813-8.271c0.175-2.014-0.062-2.771-0.5-3.646s-3.994-2.825-7.146,0.833c-2.183,2.534-2.912,4.927-3.08,7.054
		c-0.213,0.425-0.443,0.873-0.71,1.362c-1.5,2.75-3.384,3.909-4.062,2c-0.594-1.672-0.906-3.703-0.75-6.188
		c0.005-0.088,3.5-5,5.062-11.75s1.25-10.062,0.438-10.625s-4.25-1.938-6.312,6.25c-1.523,6.047-2.137,12.5-1.565,17.879
		c-0.317,0.684-0.719,1.499-1.229,2.434c-1.5,2.75-3.384,3.909-4.062,2c-0.594-1.672-0.906-3.703-0.75-6.188
		c0.005-0.088,3.5-5,5.062-11.75s1.25-10.062,0.438-10.625s-4.25-1.938-6.312,6.25s-2.465,17.126-0.5,23.125
		c0,0,1.081,3.375,3.103,3.125c1.671-0.207,3.656-1.846,4.829-4.906c0.144,0.615,0.301,1.215,0.487,1.781
		c0,0,1.081,3.375,3.103,3.125c1.376-0.17,2.964-1.32,4.14-3.423c0.711,1.839,2.239,3.34,4.213,2.985
		c2.667-0.479,3.218-1.932,3.218-1.932s-0.051,2.383,1.657,2.383c1.525,0,2.729-0.889,3.938-3.159
		c0.409-0.77,0.642-1.218,0.773-1.481c0.356,2.144,1.241,4.055,3.018,4.83c2.976,1.298,5.62-1.172,7.167-3.608
		c0.473,1.199,1.24,2.156,2.461,2.616c1.338,0.505,2.659,0.013,3.772-0.928c-0.005,1.173-0.016,2.346-0.026,3.519
		c-0.584,0.001-1.239,0.143-1.547,0.415c-3.203,2.825-4.598,6.241-4.195,10.521c0.233,2.48,2.576,3.597,4.725,2.662
		c3.101-1.35,3.57-6.021,3.83-8.836C76.968,38.11,76.482,31,76.482,24.148C76.482,22.855,73.576,23.446,73.576,24.477z
		 M30.252,13.281c0.688-2.656,1.329-3.719,1.954-3.719s0.938,0.719,0.469,3s-1.987,8.626-4.094,12.75
		C28.581,25.312,29.564,15.938,30.252,13.281z M38.67,13.281c0.688-2.656,1.329-3.719,1.954-3.719s0.938,0.719,0.469,3
		s-1.987,8.626-4.094,12.75C36.999,25.312,37.983,15.938,38.67,13.281z M51.529,25.708C51.455,26.288,51.07,30,50.57,32
		s-0.953,2.78-2.583,3.438c-1.704,0.688-2.438-1.418-2.438-1.418c-1.146-3.208,0.396-6.042,1.667-7.919s2.573-2.096,3.312-1.955
		C50.768,24.191,51.674,24.583,51.529,25.708z M73.501,43.764c-0.038,2.683-0.381,5.377-1.579,7.81
		c-0.701,0.146-1.029-0.117-1.239-1.237c-0.149-1.091-0.132-2.174,0.049-3.251c0.24-2.021,1.382-3.736,2.783-5.153
		C73.508,42.543,73.51,43.153,73.501,43.764z"/>
	<path fill="#FFFFFF" d="M92.301,21.649c-2.541-1.229-4.811-3.29-5.715-6c-1.279-3.827,2.928-6.647,6.275-6.474
		c3.488,0.181,5.137,3.625,4.967,6.709c-0.061,1.095-0.748,3.557-2.096,2.277c-0.951-0.906-1.369-2.375-1.566-3.632
		c-0.191-1.21-3.1-0.495-2.898,0.776c0.578,3.657,4.527,7.689,7.898,3.863c3.014-3.418,1.656-9.462-2.574-11.233
		c-4.523-1.893-10.135,0.077-12.529,4.327c-2.732,4.85,2.748,9.598,6.629,11.321c6.225,3.338,6.455,14.054-1.818,14.126
		c-3.43,0.03-6.619-2.438-7.693-5.609c-0.572-1.688-0.279-7.553,2.014-8.003c1.807-0.354,1.311-2.04-0.453-1.693
		c-3.713,0.727-5.08,5.515-4.721,8.858c0.576,5.341,5.578,8.339,10.631,8.295c4.682-0.041,8.654-2.929,9.625-7.549
		C99.215,27.526,96.365,23.24,92.301,21.649z"/>
	<path fill="#FFFFFF" d="M110.881,37.532c-2.855-1.552-1.223-7.563-0.791-9.875c0.279-1.492,1.555-3.794-0.494-4.296
		c-2.385-0.584-5.223,1.687-7.277,3.858c0.012-2.506,0.17-4.999,0.553-7.478c3.088-1.576,5.4-3.821,7.182-7.395
		c1.295-2.604,1.941-7.971-2.461-6.422c-3.986,1.403-5.377,6.017-6.619,9.688c-0.484,1.43-0.836,2.894-1.094,4.378
		c-0.398,0.16-0.803,0.312-1.219,0.44c-1.658,0.512-1.441,1.407,0.238,0.89c0.275-0.085,0.543-0.173,0.809-0.263
		c-0.793,5.612-0.256,11.49,0.248,17.02c0.049,0.54,2.969-0.001,2.898-0.777c-0.227-2.468-0.414-4.922-0.496-7.364
		c0.283-0.104,0.52-0.236,0.633-0.387c0.889-1.175,1.982-2.203,3.08-3.177c0.299-0.261,0.605-0.513,0.92-0.755
		c0.154-0.113,0.307-0.226,0.459-0.339c0.674-0.53,0.799-0.543,0.381-0.04c-0.061,0.916-0.459,1.93-0.625,2.832
		c-0.549,2.992-2.127,8.889,1.346,10.775C109.297,39.248,111.982,38.13,110.881,37.532z M104.395,13.431
		c0.305-0.897,0.715-1.77,1.094-2.636c0.473-1.082,1.73-4.768,2.645-3.004c0.729,1.404-0.426,3.717-0.938,5.067
		c-0.83,2.185-2.254,3.95-4.047,5.297C103.459,16.575,103.863,15,104.395,13.431z"/>
	<path fill="#FFFFFF" d="M121.635,30.527c0.006-3.288-0.375-7.506-4.303-7.863c-4.309-0.392-6.006,4.123-6.064,7.49
		c-0.004,0.274,0.135,0.456,0.35,0.569c-0.004,3.15,0.76,7.26,4.508,7.197C120.307,37.852,121.631,34.206,121.635,30.527z
		 M116.637,36.002c-2.441-0.971-2.219-5.203-2.053-7.24c0.02-0.24-0.078-0.411-0.246-0.525c0.301-2.017,1.082-5.03,2.863-3.506
		c1.416,1.211,1.445,4.148,1.521,5.835C118.775,31.71,118.617,36.79,116.637,36.002z"/>
	<path fill="#FFFFFF" d="M153.135,48.58c-1.127-2.886-3.588-3.994-6.293-4.128c-0.285-0.677-0.656-1.371-1.133-2.076
		c-3.91-5.788-13.189-5.019-19.475-1.948c-0.041-0.913-0.09-1.824-0.129-2.73c2.533,0.127,5-0.852,6.502-2.997
		c1.676-2.395,1.434-6.632,0.777-9.314c-0.619-2.525-3.088-2.072-4.93-1.234c-0.656,0.298-1.279,0.744-1.865,1.261
		c0.055-0.672,0.111-1.345,0.16-2.014c0.111-1.542-2.842-1.153-2.941,0.203c-0.453,6.196-0.297,12.366-0.441,18.54
		c-4.271,3.862-5.348,7.501-5.391,12.06c-0.02,2.271,1.934,3.961,3.982,2.386c2.895-2.224,3.771-6.629,4.172-9.984
		c0.178-1.491,0.197-3.009,0.16-4.528c4.49-2.941,10.635-3.149,15.205-0.1c0.938,0.626,1.711,1.594,2.262,2.696
		c-1.688,0.3-3.311,0.855-4.613,1.482c-1.713,0.825-4.256,2.765-4.131,4.936c0.098,1.69,1.029,2.638,2.283,2.979
		c0.078,0.033,0.17,0.063,0.299,0.084c6.135,0.995,10.703-2.626,9.828-7.737c2.984,1.625,4.107,5.405,3.043,8.66
		c-2.387,7.304-11.584,8.932-16.949,4.054c-0.574-0.523-3.184,0.577-2.729,0.992C138.574,67.199,157.846,60.653,153.135,48.58z
		 M123.191,46.805c-0.102,1.738-0.459,3.549-1.145,5.143c-0.246,0.544-0.512,1.076-0.801,1.598c0,0-0.26,0.064-0.316-0.717
		c0.025-2.858,0.809-5.577,2.346-7.892C123.25,45.56,123.227,46.182,123.191,46.805z M126.32,28.947
		c0.059-0.055,0.111-0.111,0.146-0.172c0.516-0.917,1.207-1.728,1.908-2.507c0.527-0.586,1.119-1.138,1.803-1.539
		c0.324,0.162,0.654,0.991,0.777,2.131c0.303,2.772,0.439,10.096-3.945,9.407c-0.209-0.033-0.57,0.043-0.947,0.171
		c0-0.013,0-0.026,0-0.039C126.002,33.921,126.137,31.432,126.32,28.947z M139.4,52.691c-0.016-0.003-0.037-0.001-0.055-0.003
		c-1.689-0.398-1.502-1.99-1.289-3.086c0.492-2.524,3.576-3.883,6.117-3.959C145.457,49.21,144.469,53.513,139.4,52.691z"/>
</g>
</svg>

<?xml version="1.0" encoding="UTF-8"?>
<svg width="154px" height="64px" viewBox="0 0 154 64" version="1.1" xmlns="http://www.w3.org/2000/svg" xmlns:xlink="http://www.w3.org/1999/xlink">
    <!-- Generator: Sketch 50.2 (55047) - http://www.bohemiancoding.com/sketch -->
    <title>logo</title>
    <desc>Created with Sketch.</desc>
    <defs></defs>
    <g id="Symbols" stroke="none" stroke-width="1" fill="none" fill-rule="evenodd">
        <g id="logo" fill="#FFFFFF" fill-rule="nonzero">
            <g id="Shape">
                <path d="M59.292,42.755 C58.459,42.505 57.139,43.128 57.139,43.128 C57.139,43.128 54.112,45.641 39.299,42.75 C28.391,40.621 22.716,40.833 22.716,40.833 C22.716,40.833 24.549,28.333 24.049,24.833 C24.049,24.833 24.049,23.916 22.966,23.916 C21.883,23.916 21.216,24.333 21.216,24.916 C21.216,25.499 21.383,29.333 20.966,31.999 C20.966,31.999 19.549,36.25 14.799,35.916 C10.049,35.582 9.049,32.166 8.632,29.833 C8.215,27.5 7.966,21 9.216,18.333 C9.216,18.333 16.383,18.583 20.883,14.75 C25.383,10.917 25.133,7.583 22.966,6.167 C20.799,4.751 15.883,5 12.049,8.5 C8.215,12 6.966,15.5 6.966,15.5 C6.966,15.5 1.341,14.292 2.633,8.417 C3.982,2.277 12.393,3 12.393,3 C14.143,3.333 14.216,3.5 14.799,2.917 C15.382,2.334 15.799,0.834 13.049,0.75 C10.299,0.666 2.049,2.021 0.466,7.5 C-1.219,13.328 1.901,17.497 6.088,18.143 C6.088,18.143 3.8,28.25 6.633,33.25 C9.466,38.25 13.573,38.167 15.228,38.167 C16.883,38.167 19.8,37.251 20.633,35.917 C20.633,35.917 20.24,39.498 19.909,40.797 C19.909,40.797 12.974,40.702 10.8,41.833 C7.112,43.75 7.883,48.313 9.3,49.937 C10.504,51.317 14.112,52.062 16.717,50.833 C19.422,49.556 21.582,47.094 22.266,43.136 C22.266,43.136 28.634,42.667 34.8,44.5 C40.966,46.333 49.556,48.056 52.14,48.056 C54.724,48.056 60.186,47.318 60.467,45.167 C60.653,43.729 60.125,43.005 59.292,42.755 Z M15.862,9.328 C15.862,9.328 19.143,6.828 20.706,8.39 C20.706,8.39 21.956,9.671 20.8,11.202 C20.144,12.071 18.404,14.791 10.1439997,16.1400002 C10.143,16.141 12.737,11.578 15.862,9.328 Z M16.127,48.234 C16.127,48.234 11.596,50.703 11.08,47.359 C10.747,45.201 11.97,44.179 12.767,43.789 C13.564,43.399 14.642,42.91 19.346,43.078 C19.346,43.078 19.346,46.406 16.127,48.234 Z"></path>
                <path d="M73.576,24.477 L73.574,31.247 C73.567,31.285 73.555,31.322 73.553,31.362 C73.518,32.293 73.135,33.096 72.692,33.899 C72.3845424,34.4500981 71.9855086,34.9448323 71.512,35.362 C70.979,35.831 70.635,34.798 70.434,34.377 C69.043,31.462 69.708,27.565 70.247,24.515 C70.504,23.061 67.541,23.438 67.311,24.737 C66.977,26.625 66.442,29.855 66.764,32.643 C66.177,32.744 65.597,33.009 65.423,33.38 C64.912,34.468 63.414,38.084 61.59,36.638 C60.271,35.592 60.129,32.895 59.99,31.37 C59.799,29.259 60.144,27.103 60.806,25.104 C60.748,25.277 61.946,22.281 62.476,23.401 C62.802,24.091 62.508,26.042 61.868,26.523 C60.297,27.705 62.743,28.193 63.692,27.479 C65.494,26.123 66.742,21.771 63.618,21.247 C60.154,20.666 58.18,24.17 57.455,26.944 C57.12,28.223 56.892,30.018 56.951,31.83 C56.47,32.662 54.854,35.363 53.904,35.856 C52.779,36.44 52.8,35.627 52.842,35.106 C52.884,34.585 53.384,29.96 53.655,26.835 C53.83,24.821 53.593,24.064 53.155,23.189 C52.717,22.314 49.161,20.364 46.009,24.022 C43.826,26.556 43.097,28.949 42.929,31.076 C42.716,31.501 42.486,31.949 42.219,32.438 C40.719,35.188 38.835,36.347 38.157,34.438 C37.563,32.766 37.251,30.735 37.407,28.25 C37.412,28.162 40.907,23.25 42.469,16.5 C44.031,9.75 43.719,6.438 42.907,5.875 C42.095,5.312 38.657,3.937 36.595,12.125 C35.072,18.172 34.458,24.625 35.03,30.004 C34.6470381,30.8285439 34.2371514,31.6403131 33.801,32.438 C32.301,35.188 30.417,36.347 29.739,34.438 C29.145,32.766 28.833,30.735 28.989,28.25 C28.994,28.162 32.489,23.25 34.051,16.5 C35.613,9.75 35.301,6.438 34.489,5.875 C33.677,5.312 30.239,3.937 28.177,12.125 C26.115,20.313 25.712,29.251 27.677,35.25 C27.677,35.25 28.758,38.625 30.78,38.375 C32.451,38.168 34.436,36.529 35.609,33.469 C35.753,34.084 35.91,34.684 36.096,35.25 C36.096,35.25 37.177,38.625 39.199,38.375 C40.575,38.205 42.163,37.055 43.339,34.952 C44.05,36.791 45.578,38.292 47.552,37.937 C50.219,37.458 50.77,36.005 50.77,36.005 C50.77,36.005 50.719,38.388 52.427,38.388 C53.952,38.388 55.156,37.499 56.365,35.229 C56.774,34.459 57.007,34.011 57.138,33.748 C57.494,35.892 58.379,37.803 60.156,38.578 C63.132,39.876 65.776,37.406 67.323,34.97 C67.796,36.169 68.563,37.126 69.784,37.586 C71.122,38.091 72.443,37.599 73.556,36.658 C73.551,37.831 73.54,39.004 73.53,40.177 C72.946,40.178 72.291,40.32 71.983,40.592 C68.78,43.417 67.385,46.833 67.788,51.113 C68.021,53.593 70.364,54.71 72.513,53.775 C75.614,52.425 76.083,47.754 76.343,44.939 C76.968,38.11 76.482,31 76.482,24.148 C76.482,22.855 73.576,23.446 73.576,24.477 Z M30.252,13.281 C30.94,10.625 31.581,9.562 32.206,9.562 C32.831,9.562 33.144,10.281 32.675,12.562 C32.206,14.843 30.688,21.188 28.581,25.312 C28.581,25.312 29.564,15.938 30.252,13.281 Z M38.67,13.281 C39.358,10.625 39.999,9.562 40.624,9.562 C41.249,9.562 41.562,10.281 41.093,12.562 C40.624,14.843 39.106,21.188 36.999,25.312 C36.999,25.312 37.983,15.938 38.67,13.281 Z M51.529,25.708 C51.455,26.288 51.07,30 50.57,32 C50.07,34 49.617,34.78 47.987,35.438 C46.283,36.126 45.549,34.02 45.549,34.02 C44.403,30.812 45.945,27.978 47.216,26.101 C48.487,24.224 49.789,24.005 50.528,24.146 C51.2201272,24.3229496 51.6573692,25.0052394 51.529,25.708 Z M73.501,43.764 C73.463,46.447 73.12,49.141 71.922,51.574 C71.221,51.72 70.893,51.457 70.683,50.337 C70.5341631,49.2571318 70.5506859,48.1608921 70.732,47.086 C70.972,45.065 72.114,43.35 73.515,41.933 C73.508,42.543 73.51,43.153 73.501,43.764 Z M92.301,21.649 C89.76,20.42 87.49,18.359 86.586,15.649 C85.307,11.822 89.514,9.002 92.861,9.175 C96.349,9.356 97.998,12.8 97.828,15.884 C97.767,16.979 97.08,19.441 95.732,18.161 C94.781,17.255 94.363,15.786 94.166,14.529 C93.975,13.319 91.066,14.034 91.268,15.305 C91.846,18.962 95.795,22.994 99.166,19.168 C102.18,15.75 100.822,9.706 96.592,7.935 C92.069,6.042 86.457,8.012 84.063,12.262 C81.331,17.112 86.811,21.86 90.692,23.583 C96.917,26.921 97.147,37.637 88.874,37.709 C85.444,37.739 82.255,35.271 81.181,32.1 C80.609,30.412 80.902,24.547 83.195,24.097 C85.002,23.743 84.506,22.057 82.742,22.404 C79.029,23.131 77.662,27.919 78.021,31.262 C78.597,36.603 83.599,39.601 88.652,39.557 C93.334,39.516 97.306,36.628 98.277,32.008 C99.215,27.526 96.365,23.24 92.301,21.649 Z"></path>
                <path d="M110.881,37.532 C108.026,35.98 109.658,29.969 110.09,27.657 C110.369,26.165 111.645,23.863 109.596,23.361 C107.211,22.777 104.373,25.048 102.319,27.219 C102.331,24.713 102.489,22.22 102.872,19.741 C105.96,18.165 108.272,15.92 110.054,12.346 C111.349,9.742 111.995,4.375 107.593,5.924 C103.607,7.327 102.216,11.941 100.974,15.612 C100.497169,17.040993 100.131415,18.5046787 99.88,19.99 C99.482,20.15 99.077,20.302 98.661,20.43 C97.003,20.942 97.22,21.837 98.899,21.32 C99.174,21.235 99.442,21.147 99.708,21.057 C98.915,26.669 99.452,32.547 99.956,38.077 C100.005,38.617 102.925,38.076 102.854,37.3 C102.627,34.832 102.44,32.378 102.358,29.936 C102.641,29.832 102.878,29.7 102.991,29.549 C103.88,28.374 104.973,27.346 106.071,26.372 C106.37,26.111 106.676,25.859 106.991,25.617 L107.45,25.278 C108.124,24.748 108.249,24.735 107.831,25.238 C107.77,26.154 107.372,27.168 107.206,28.07 C106.657,31.062 105.079,36.959 108.552,38.845 C109.297,39.248 111.982,38.13 110.881,37.532 Z M104.395,13.431 C104.7,12.534 105.11,11.661 105.489,10.795 C105.962,9.713 107.219,6.027 108.134,7.791 C108.863,9.195 107.708,11.508 107.196,12.858 C106.366,15.043 104.942,16.808 103.149,18.155 C103.459,16.575 103.863,15 104.395,13.431 Z"></path>
                <path d="M121.635,30.527 C121.641,27.239 121.26,23.021 117.332,22.664 C113.023,22.272 111.326,26.787 111.268,30.154 C111.264,30.428 111.403,30.61 111.618,30.723 C111.614,33.873 112.378,37.983 116.126,37.92 C120.307,37.852 121.631,34.206 121.635,30.527 Z M116.637,36.002 C114.196,35.031 114.418,30.799 114.584,28.762 C114.610356,28.5541638 114.514573,28.3497492 114.338,28.237 C114.639,26.22 115.42,23.207 117.201,24.731 C118.617,25.942 118.646,28.879 118.722,30.566 C118.775,31.71 118.617,36.79 116.637,36.002 Z M153.135,48.58 C152.008,45.694 149.547,44.586 146.842,44.452 C146.533426,43.7244714 146.153926,43.029113 145.709,42.376 C141.799,36.588 132.52,37.357 126.234,40.428 C126.193,39.515 126.144,38.604 126.105,37.698 C128.638,37.825 131.105,36.846 132.607,34.701 C134.283,32.306 134.041,28.069 133.384,25.387 C132.765,22.862 130.296,23.315 128.454,24.153 C127.798,24.451 127.175,24.897 126.589,25.414 C126.644,24.742 126.7,24.069 126.749,23.4 C126.86,21.858 123.907,22.247 123.808,23.603 C123.355,29.799 123.511,35.969 123.367,42.143 C119.096,46.005 118.019,49.644 117.976,54.203 C117.956,56.474 119.91,58.164 121.958,56.589 C124.853,54.365 125.729,49.96 126.13,46.605 C126.308,45.114 126.327,43.596 126.29,42.077 C130.78,39.136 136.925,38.928 141.495,41.977 C142.433,42.603 143.206,43.571 143.757,44.673 C142.069,44.973 140.446,45.528 139.144,46.155 C137.431,46.98 134.888,48.92 135.013,51.091 C135.111,52.781 136.042,53.729 137.296,54.07 C137.374,54.103 137.466,54.133 137.595,54.154 C143.73,55.149 148.298,51.528 147.423,46.417 C150.407,48.042 151.53,51.822 150.466,55.077 C148.079,62.381 138.882,64.009 133.517,59.131 C132.943,58.608 130.333,59.708 130.788,60.123 C138.574,67.199 157.846,60.653 153.135,48.58 Z M123.191,46.805 C123.089,48.543 122.732,50.354 122.046,51.948 C121.800699,52.4912698 121.53348,53.024374 121.245,53.546 C121.245,53.546 120.985,53.61 120.929,52.829 C120.954,49.971 121.738,47.252 123.275,44.937 C123.25,45.56 123.227,46.182 123.191,46.805 Z M126.32,28.947 C126.376868,28.8971665 126.426066,28.8392079 126.466,28.775 C126.982,27.858 127.673,27.047 128.374,26.268 C128.901,25.682 129.493,25.13 130.177,24.729 C130.501,24.891 130.831,25.72 130.954,26.86 C131.257,29.632 131.393,36.956 127.009,36.267 C126.8,36.234 126.439,36.31 126.062,36.438 L126.062,36.399 C126.002,33.921 126.137,31.432 126.32,28.947 Z M139.4,52.691 C139.384,52.688 139.363,52.69 139.345,52.688 C137.656,52.29 137.843,50.698 138.056,49.602 C138.548,47.078 141.632,45.719 144.173,45.643 C145.457,49.21 144.469,53.513 139.4,52.691 Z"></path>
            </g>
        </g>
    </g>
</svg>
